static/svgs/clients/enigma-white.svg

<svg fill="none" height="21" viewBox="0 0 115 21" width="115" xmlns="http://www.w3.org/2000/svg"><path d="m106.454.153481-.06-.153481h-.463l-8.2049 20.5956h2.3399l1.343-3.4077h8.22l-.821-2.1716h-6.558l3.925-9.9763c1.005 2.55318 5.993 15.4 5.993 15.4l.058.1556h2.399zm-14.6993-.0954069-8.7882 11.2871259-5.889-7.51853v3.39526l5.5894 7.32977.0724.0954h.3438l6.9505-9.01392v14.96032h2.2117v-20.5333519zm-18.0952 0v20.5333259h2.2116v-14.95822-3.33718l-1.7532-2.2379259zm-42.1316.4023699.0603 18.515256v.0373l1.6084 1.987h.5208v-20.533333zm-12.4656-.4023699h-.5208v20.5333259h2.1896v-15.01007l9.6507 11.94877v-3.4637l-11.2592-13.921215zm-8.1308 11.9466259v-2.14248h-7.48336v2.14248zm-8.62135 6.8237v-15.79196h9.65075v-2.173625h-11.9609v20.135085h12.351v-2.1695zm57.06825-6.8734v2.1819h5.7402v2.7253c-1.4215 1.1947-3.2391 1.7754-5.5553 1.7754-4.5157 0-7.795-3.4056-7.795-8.0889 0-2.24411.756-4.29951 2.1252-5.7887 1.3913-1.49748 3.3235-2.33333 5.3341-2.30844 2.4891 0 4.2101.75288 5.7563 2.51792l.1628.18667 1.6406-1.58045-.1588-.18251c-1.8578-2.11349-4.2604-3.142227-7.3446-3.142227-2.6138-.031111-5.135 1.010077-7.0049 2.893337-1.8859 1.95792-2.9294 4.61688-2.8952 7.3775-.0322 2.773 1.0354 5.4382 2.9535 7.3795 1.8839 1.8833 4.4494 2.9183 7.226 2.9183 3.1969 0 5.5693-.8649 7.6905-2.8042l.0804-.0747v-5.9857zm-16.0364 8.6406h-2.3282v-20.135156h2.3282z" fill="#fff"/></svg>

<svg width="115" height="21" viewBox="0 0 115 21" fill="none" xmlns="http://www.w3.org/2000/svg">
<path d="M106.454 0.153481L106.394 0H105.931L97.7261 20.5956H100.066L101.409 17.1879H109.629L108.808 15.0163H102.25L106.175 5.04C107.18 7.59318 112.168 20.44 112.168 20.44L112.226 20.5956H114.625L106.454 0.153481ZM91.7547 0.0580741L82.9665 11.3452L77.0775 3.82667V7.22193L82.6669 14.5517L82.7393 14.6471H83.0831L90.0336 5.63318V20.5935H92.2453V0.0601481L91.7547 0.0580741ZM73.6595 0.0580741V20.5914H75.8711V5.63318V2.296L74.1179 0.0580741H73.6595ZM31.5279 0.460444L31.5882 18.9757V19.013L33.1966 21H33.7174V0.466667L31.5279 0.460444ZM19.0623 0.0580741H18.5415V20.5914H20.7311V5.58133L30.3818 17.5301V14.0664L19.1226 0.145185L19.0623 0.0580741ZM10.9315 12.0047V9.86222H3.44814V12.0047H10.9315ZM2.31015 18.8284V3.03644H11.9609V0.862815H0V20.9979H12.351V18.8284H2.31015ZM59.3784 11.955V14.1369H65.1186V16.8622C63.6971 18.0569 61.8795 18.6376 59.5633 18.6376C55.0476 18.6376 51.7683 15.232 51.7683 10.5487C51.7683 8.30459 52.5243 6.24919 53.8935 4.76C55.2848 3.26252 57.217 2.42667 59.2276 2.45156C61.7167 2.45156 63.4377 3.20444 64.9839 4.96948L65.1467 5.15615L66.7873 3.5757L66.6285 3.39319C64.7707 1.2797 62.3681 0.250963 59.2839 0.250963C56.6701 0.219852 54.1489 1.26104 52.279 3.1443C50.3931 5.10222 49.3496 7.76118 49.3838 10.5218C49.3516 13.2948 50.4192 15.96 52.3373 17.9013C54.2212 19.7846 56.7867 20.8196 59.5633 20.8196C62.7602 20.8196 65.1326 19.9547 67.2538 18.0154L67.3342 17.9407V11.955H59.3784ZM43.342 20.5956H41.0138V0.460444H43.342V20.5956Z" fill="white"/>
</svg>
